X:1
T:Title
%%score { ( 1 3 ) | ( 2 4 ) }
L:1/8
Q:1/4=100
M:4/4
K:F
V:1 treble nm="Grand Piano"
V:3 treble 
V:2 bass 
V:4 bass 
V:1
 A3 G FGAB | c6 z2 | [EG]3 [EG] [EG][_E^F][=EG][FA] | [GB]6 z2 | [FA]3 [GB] [Ac][FA][FB][Fc] | %5
w: J.~H.~Hall * * * * *|||||
 [Fd]6 z2 | [Fc]3 [CF] [FA]GFE | [A,CF]6 z2 | c6 z2 | c>d c>A F4 | A6 z2 | %11
w: ||||||
 [CFA]>[CGB] [CAc]>[CFA] [CEG]4 | c6 z2 | c>d c>A F4 | [FA]3 [CF] [FA]GFE | F6 z2 |] %16
w: |||||
V:2
 [F,CF]3 [F,B,C] [F,A,C][F,B,C][F,CF][F,B,F] | [F,A,F]6 z2 | [C,C]3 [C,C] [C,C][C,C][C,C][C,C] | %3
 [C,C]6 z2 | [F,C]3 [F,C] [F,C][_E,C][D,B,][C,A,] | [B,,B,]6 z2 | %6
 [C,A,]3 [C,A,] [C,C][C,B,C][C,A,C][C,G,C] | [F,,F,]6 z2 | [F,F]2 z2 z4 | %9
 [F,A,F]>[F,B,F] [F,A,F]>[F,C] [F,A,C]4 | F6 z2 | F,>F, F,>F, C,4 | [F,F]2 z2 z4 | %13
 [F,A,F]>[F,B,F] [F,A,F]>[F,C] [F,A,C]4 | [C,C]3 [C,A,] [C,C][C,B,C][C,A,C][C,G,C] | [F,A,C]6 z2 |] %16
V:3
 x8 | x8 | x8 | x8 | x8 | x8 | x8 | x8 | z z/ F/ F>F F2 d2 | x8 | z z/ C/ C>C C2 B2 | x8 | %12
 z z/ F/ F>F F2 d2 | x8 | x8 | x8 |] %16
V:4
 x8 | x8 | x8 | x8 | x8 | x8 | x8 | x8 | A,->[F,A,-] [F,A,-]>[F,A,-] [F,A,]2 B,2 | x8 | %10
 [F,C]>F, F,>F, F,2 G2 | x8 | A,->[F,A,-] [F,A,-]>[F,A,-] [F,A,]2 B,2 | x8 | x8 | x8 |] %16

